X:1
T:Title
%%score { 1 | ( 2 3 ) }
L:1/8
M:6/8
K:Bb
V:1 treble nm="Grand Piano"
V:2 bass 
V:3 bass 
V:1
 z3 z2[Q:1/4=84] [B,D]/E/ | [DF]2 [DF] [EG]2 [DF] | [Fd]2 [Ec] [DB]2 [DF] | G2 F E2 F | %4
[M:5/8] D3 z2 |[M:1/8] D/E/ |[M:3/4] [DF]2 [DF] [EG]2 [DF] | [Fd]2 [Ec] [DB]2 [DF] | G2 F E2 F | %9
[M:5/8] D3 z2 |[M:1/8] [DF] |[M:3/4] [EG]2 [EG][GB] [FA][EG] | [DF]2 [DB] [Fd]2 [Fd] | %13
 [Af]2 [Ae] [Fc]2 [Ff] |[M:5/8] [Fd]3 z2 |[M:1/8] [DF]/[CE]/ |[M:3/4] [B,D]2 [DF] [DB]2 [FA] | %17
 [EG]2 [EG] [Ge]2 [Ge] | d2 B c2 A |[M:13/8] [DB]3 z z z z z z z z z2 |[M:3/4] [EB]6 | [DB]6 |] %22
V:2
 z3 z z z/ C/ | [B,,B,]2 [B,,B,] [B,,B,]2 [B,,B,] | [B,,B,]2 [B,,B,] [B,,B,]2 [B,,B,] | %3
 [E,B,E]2 [E,B,D] [F,B,C]2 [F,A,C] |[M:5/8] [B,,F,B,]3 z2 |[M:1/8] B,/C/ | %6
[M:3/4] [B,,B,]2 [B,,B,] [B,,B,]2 [B,,B,] | [B,,B,]2 [B,,B,] [B,,B,]2 [B,,B,] | %8
 [E,B,E]2 [E,B,D] [F,B,C]2 [F,A,C] |[M:5/8] [B,,F,B,]3 z2 |[M:1/8] [B,,B,] | %11
[M:3/4] [E,B,]2 [E,B,] [E,B,]2 [E,B,] | [B,,B,]2 [B,,B,] [B,,B,]2 [B,,B,] | %13
 [F,C]2 [F,C] [F,A,]2 [F,A,] |[M:5/8] [B,,B,]3 z2 |[M:1/8] [B,,B,] | %16
[M:3/4] [B,,F,]2 [B,,F,] [B,,F,]2 [D,B,] | [E,B,]2 [E,B,] [E,B,]2 [E,B,] | %18
 [F,B,F]2 [F,B,D] [F,A,E]2 [F,E] |[M:13/8] [B,,F,]3 z z z z z z z z z2 |[M:3/4] [E,G,]6 | %21
 [B,,F,]6 |] %22
V:3
 z3 z2 B,, | x6 | x6 | x6 |[M:5/8] x5 |[M:1/8] B,, |[M:3/4] x6 | x6 | x6 |[M:5/8] x5 |[M:1/8] x | %11
[M:3/4] x6 | x6 | x6 |[M:5/8] x5 |[M:1/8] x |[M:3/4] x6 | x6 | x6 |[M:13/8] x13 |[M:3/4] x6 | x6 |] %22

